!!!COM: Corelli, Arcangelo
!!!OPR: Sonata da chiesa
!!!OPS: 3
!!!ONM: 6
!!!OMV: 4
!!!OMD: Allegro
**kern	**cdata-harm	**fb	**kern	**kern
*part3	*above	*part3	*part2	*part1
*staff3	*	*	*staff2	*staff1
*I"Violone & Organo	*	*	*I"Violino II	*I"Violino I
*clefF4	*	*	*clefG2	*clefG2
*k[]	*	*	*k[]	*k[]
*M6/8	*	*	*M6/8	*M6/8
*MM152	*	*	*MM152	*MM152
=1	=1	=1	=1	=1
2.r	.	.	2.r	4gg
.	.	.	.	8dd
.	V	.	.	8eeL
.	.	.	.	8b
.	.	.	.	8ccJ
=2	=2	=2	=2	=2
2.r	.	.	2.r	8ddL
.	.	.	.	8g
.	.	.	.	8ccJ
.	IV	.	.	8b
.	.	.	.	4a
=3	=3	=3	=3	=3
2.r	.	.	2.r	8gL
.	.	.	.	8bb
.	.	.	.	8ggJ
.	.	.	.	8aaL
.	.	.	.	8ff#X
.	.	.	.	8ddJ
=4	=4	=4	=4	=4
2.r	.	.	4.r	8ggL
.	.	.	.	8ee
.	.	.	.	8cc#XJ
.	.	.	4dd	4ff#X
.	.	.	8a	8cc#
=5	=5	=5	=5	=5
2.r	.	.	8bL	8ddL
.	.	.	8f#X	8a
.	.	.	8gJ	8bJ
.	IV/V	.	8aL	8cc#XL
.	.	.	8d	8f#X
.	.	.	8gJ	8bJ
=6	=6	=6	=6	=6
2.r	.	.	8f#X	8a
.	.	.	4e	4g
.	.	.	8dL	4f#X
.	.	.	8dd	.
.	.	.	8bJ	8r
=7	=7	=7	=7	=7
2.r	.	.	8eeL	2r
.	.	.	8cc	.
.	.	.	8aJ	.
.	.	.	8ddL	.
.	.	.	8b	8ddL
.	.	.	8gJ	8bJ
=8	=8	=8	=8	=8
4.r	.	.	8ccL	8eeL
.	.	.	8a	8cc
.	.	.	8f#XJ	8aJ
4G	.	.	4b	8ddL
.	.	.	.	8bb
8D	.	#	8dd	8ff#XJ
=9	=9	=9	=9	=9
8EL	vi7	7	8bL	8ggL
8BB	.	6	8g	8dd
8CJ	.	.	8ccJ	8eeJ
8DL	IV	7 #	8ccL	8ff#X
8GG	.	5	8b	[4gg
8CJ	.	.	8eeJ	.
=10	=10	=10	=10	=10
8BB	I6	6	8dd	8gg]
4AA	.	#6\	4cc	4ff#X
8GGL	.	.	8b	4gg
8B	.	6	[4gg	.
8GJ	.	.	.	8bb
=11	=11	=11	=11	=11
8dL	V(4)	4	8gg]	4.aa
8F#X	.	6	4.ff#X	.
8DJ	.	.	.	.
8EL	.	#9\	.	4.gg
8C#X	.	5	[4ee	.
8AAJ	.	.	.	.
=12	=12	=12	=12	=12
8DL	I(9)/V	9	8eeL]	8ff#X
8F#X	.	6	8dd	4.aa
8DJ	.	.	8aJ	.
8GL	.	9	8bL	.
8B	.	6	8gg	[4gg
8GJ	.	.	8bJ	.
=13	=13	=13	=13	=13
8AL	V7/V	7 #	8cc#X	8ggL]
8d	.	.	4.dd	8ff#X
8F#XJ	.	.	.	8aaJ
8GL	I6/V	6 5	.	8bb
8A	.	#	4cc#	4ee
8AAJ	.	.	.	.
=14	=14	=14	=14	=14
4D	I/V|PAC}{	#	4ff#X	4dd
2r	.	.	8cc#X	8a
.	V/V	.	8ddL	8bL
.	.	.	8a	8f#X
.	.	.	8bJ	8gJ
=15	=15	=15	=15	=15
2.r	.	.	8cc#XL	8aL
.	.	.	8f#X	8d
.	.	.	8bJ	8gJ
.	IV/V	.	8a	8f#X
.	.	.	4g	4e
=16	=16	=16	=16	=16
8r	.	.	4.f#X	8dL
4.d	.	#	.	8dd
.	.	.	.	8dJ
.	.	4 2	4.r	8eL
[4c	.	6	.	8cc
.	.	.	.	8eJ
=17	=17	=17	=17	=17
8cL]	.	#4| 2	8r	8f#X
8B	.	6	8ddL	4.g
8GJ	.	.	8bJ	.
8AL	I	7	8ccL	.
8d	.	#	8a	4f#
8DJ	.	.	8f#XJ	.
=18	=18	=18	=18	=18
4G	I	5	8b	8r
.	.	6	4.ee	8bbL
8G	.	.	.	8ggJ
8F#XL	.	7	.	8aaL
8B	.	7	[4dd	8ff#X
8BBJ	.	.	.	8ddJ
=19	=19	=19	=19	=19
8EL	ii7/V	7	8dd]	8ggL
8A	.	#	4cc#X	8ee
8AAJ	.	.	.	8cc#XJ
4.D	.	5 #	8r	8ff#X
.	.	6	8ddL	[4bb
.	.	.	8bJ	.
=20	=20	=20	=20	=20
4.C	ii6(2)	7	8eeL	8bb]
.	.	6	8ccni	4.aa
.	.	.	8aJ	.
4.BB	.	7	8ddL	.
.	.	6	8b	[4gg
.	.	.	8gJ	.
=21	=21	=21	=21	=21
4.AA	viio6(2)	7	8ccL	8ggL]
.	.	#6\	8a	8ff#X
.	.	.	8gJ	8eeJ
4BB	iv7/vi	#	4f#X	8dd#XL
.	.	.	.	8bb
8GG	.	6	8b	8bJ
=22	=22	=22	=22	=22
4AA	iv(9)/vi	9	8bL	8ccL
.	.	8	8e	8a
8AA	.	.	8aJ	8ccJ
4BB	iv/vi	7 #	4a	4d#X
[8AA	.	7	[8g	[8e
=23	=23	=23	=23	=23
8AA]	.	.	8g]	8e]
4BB	.	#	4f#X	4d#X
4.EE	.	.	4gg	4ee
.	.	.	8dd	8b
=24	=24	=24	=24	=24
4.r	.	.	8eeL	8ccL
.	.	.	8b	8g
.	.	.	8ccJ	8aJ
4G	viio6	.	4dd	4b
8D	.	.	8r	8r
=25	=25	=25	=25	=25
8EL	IV6	.	4.r	4.r
8D	.	.	.	.
8CJ	.	.	.	.
4.BB	IV	.	4ddd	4bb
.	.	.	8aa	8ff#X
=26	=26	=26	=26	=26
4.r	.	.	8bbL	8ggL
.	.	.	8ff#X	8dd
.	.	.	8ggJ	8eeJ
4d	vi	#	4aa	4ff#X
8A	.	.	8r	8r
=27	=27	=27	=27	=27
8BL	IV6/V	6	4.r	4.r
8A	.	.	.	.
8GJ	.	.	.	.
4.F#X	IV/V	6	4aa	4ff#X
.	.	.	8ff#X	8dd
=28	=28	=28	=28	=28
4.G	IV/V	5	8ddL	8bL
.	.	6	8gg	8ee
.	.	.	8ff#XJ	8ddJ
4.A	.	5 #	8ee	8cc#XL
.	.	#6\	[4aa	8ff#X
.	.	.	.	8eeJ
=29	=29	=29	=29	=29
4.B	IV6(2)/V	7	8aaL]	8dd
.	.	6	8gg	4.bb
.	.	.	8bbJ	.
4.c#X	.	7	[4.ee	.
.	.	6	.	8aaL
.	.	.	.	8ggJ
=30	=30	=30	=30	=30
4d	I(9)/V	9	8eeL]	8ff#XL
.	.	8	8dd	8ggJ
8F#X	.	6	8ccJ	4aa
4G	I6/V	9	8bL	.
.	.	8	8cc#X	[4gg
8G	.	.	8ddJ	.
=31	=31	=31	=31	=31
8AL	V7/V	7 #	8cc#X	8ggL]
8B	.	#5\	4.dd	8ff#X
8GJ	.	6 5	.	8eeJ
8A	ii65/V	6 4	.	8ff#
4AA	.	#	4cc#	4ee
=32	=32	=32	=32	=32
8DL	I/V|PAC}{	#	4.dd	8ddL
8E	.	.	.	8gg
8BBJ	.	6	.	8ddJ
8CL	I6	.	4.r	8eeL
8GG	.	.	.	8b
8AAJ	.	.	.	8ccJ
=33	=33	=33	=33	=33
4BB	I6	6	8r	8ddL
.	.	.	8ggL	8bb
2r	.	.	8ddJ	8ff#XJ
.	V	.	8eeL	8ggL
.	.	.	8b	8dd
.	.	.	8ccJ	8eeJ
=34	=34	=34	=34	=34
8r	.	.	8ddL	8ff#X
8BL	.	6	8bb	4.ddd
8BBJ	.	.	8ff#XJ	.
8EL	iii	7	8ggL	.
8A	.	7	8ee	[4ccc
8AAJ	.	.	8aaJ	.
=35	=35	=35	=35	=35
8DL	V7	7 #	8ff#XL	8ccc]
8G	.	.	8dd	4.bb
8GGJ	.	.	8ggJ	.
8C	.	7	8eeL	.
[4c	.	6	8cc	8aaL
.	.	5	8eeJ	8ggJ
=36	=36	=36	=36	=36
8cL]	V2	#4|	4dd	8ff#XL
8B	.	6	.	8dd
8GJ	.	.	8ddd	8bbJ
8cL	I	6	4ccc	8eeL
8d	.	7 #	.	8ff#
8eJ	.	5	[8bb	[8ggJ
=37	=37	=37	=37	=37
8cL	IVM7	7	8bb]	8gg]
8d	.	#	4aa	4ff#X
8DJ	.	.	.	.
4G	.	.	4gg	8gg
.	.	.	.	[4dd
8BB	.	6	8dd	.
=38	=38	=38	=38	=38
4C	IV(9)	9	4ee	8ddL]
.	.	8	.	8gJ
8C	.	.	8e	4cc
8DL	IV	9 #	8f#X	.
8E	.	5	[4g	8bL
8CJ	.	6 5	.	8aJ
=39	=39	=39	=39	=39
8D	V(64)	6 4	8g]	8b
4DD	.	#	4f#X	4a
4GG	.	.	4g	8g
.	.	.	.	[4dd
8BB	.	6	8dd	.
=40	=40	=40	=40	=40
4C	IV(9)	9	4ee	8ddL]
.	.	8	.	8gJ
8C	.	.	8e	4cc
8DL	IV	7 #	8f#X	.
8E	.	5	[4g	8bL
8CJ	.	6 5	.	8aJ
=41	=41	=41	=41	=41
8D	V(64)	6 4	8g]	8b
4DD	.	#	4f#X	4a
4GG	.	.	4g	4g
8r	.	.	8r	8r
=:|!	=:|!	=:|!	=:|!	=:|!
*-	*-	*-	*-	*-
!!!system-decoration: [{s1,s2},s3]
!!!YEM: CC BY-NC-SA 4.0; CCARH; DCML
!!!RDF**kern: i = editorial accidental